public/images/right-down.svg

<?xml version="1.0" encoding="UTF-8" standalone="no"?>
<svg viewBox="-30 -30 118 118" version="1.1" xmlns="http://www.w3.org/2000/svg" xmlns:xlink="http://www.w3.org/1999/xlink">
    <g id="Page-1" stroke="none" stroke-width="1" fill="none" fill-rule="evenodd">
        <path d="M72,50.7 L68.15,50.7 C60.05,51.1666667 54.7666667,54.6 52.3,61 C51.1,64 50.5333333,67.6666667 50.6,72 L8,71.95 L8,66.5 C9.46666667,30.9666667 28.8833333,12.8 66.25,12 L67.85,12 L72,12 L72,50.7" id="Shape" fill="#E5E5E5"></path>
        <path d="M72,8 L72,12 L67.85,12 L66.25,12 C28.8833333,12.8 9.46666667,30.9666667 8,66.5 L8,62.5 C9.46666667,26.9666667 28.8833333,8.8 66.25,8 L67.85,8 L72,8" id="Shape" fill="#F3F3F3"></path>
        <path d="M72,8 L72,4.1 L84.05,4.1 L84.05,8.1 L84,46.7 L84,54.7 L72,54.7 L72,50.7 L72,12 L72,8 M50.6,72 L54.6,72 L54.6,84 L4,84 L4,71.95 L8,71.95 L50.6,72" id="Shape" fill="#B6B6B6"></path>
        <path d="M88.05,8.1 L88,46.7 L88,54.7 C88,55.8 87.6166667,56.75 86.85,57.55 C86.05,58.3166667 85.1,58.7 84,58.7 L72,58.7 C70.9,58.7 69.9666667,58.3166667 69.2,57.55 C68.4,56.75 68,55.8166667 68,54.75 C61.9666667,55.1833333 57.9833333,57.75 56.05,62.45 L56.05,62.5 C55.4166667,64.1 54.9833333,65.9333333 54.75,68 C55.7833333,68.0333333 56.6833333,68.4333333 57.45,69.2 C58.2166667,69.9666667 58.6,70.9 58.6,72 L58.6,84 C58.6,85.1 58.2166667,86.05 57.45,86.85 C56.65,87.6166667 55.7,88 54.6,88 L4,88 C2.9,88 1.96666667,87.6166667 1.2,86.85 C0.4,86.05 7.10542736e-15,85.1 7.10542736e-15,84 L7.10542736e-15,71.95 C7.10542736e-15,70.85 0.4,69.9166667 1.2,69.15 C1.96666667,68.35 2.9,67.95 4,67.95 L4,62.5 L4,62.35 C5.5,24.3166667 26.2333333,4.86666667 66.2,4 L66.25,4 L67.85,4 L68,4 C68.0333333,2.93333333 68.4333333,2.03333333 69.2,1.3 C69.9666667,0.5 70.9,0.1 72,0.1 L84.05,0.1 C85.15,0.1 86.1,0.5 86.9,1.3 C87.6666667,2.06666667 88.05,3 88.05,4.1 L88.05,8.1 M72,50.7 L72,54.7 L84,54.7 L84,46.7 L84.05,8.1 L84.05,4.1 L72,4.1 L72,8 L67.85,8 L66.25,8 C28.8833333,8.8 9.46666667,26.9666667 8,62.5 L8,66.5 L8,71.95 L4,71.95 L4,84 L54.6,84 L54.6,72 L50.6,72 C50.5333333,67.6666667 51.1,64 52.3,61 C54.7666667,54.6 60.05,51.1666667 68.15,50.7 L72,50.7" id="Shape" fill="#777777"></path>
    </g>
</svg>

<svg viewBox="-30 -30 118 118" xmlns="http://www.w3.org/2000/svg"><g fill="none" fill-rule="evenodd"><path d="M72 50.7h-3.85c-8.1.467-13.383 3.9-15.85 10.3-1.2 3-1.767 6.667-1.7 11L8 71.95V66.5C9.467 30.967 28.883 12.8 66.25 12H72v38.7" fill="#E5E5E5"/><path d="M72 8v4h-5.75C28.883 12.8 9.467 30.967 8 66.5v-4C9.467 26.967 28.883 8.8 66.25 8H72" fill="#F3F3F3"/><path d="M72 8V4.1h12.05v4L84 46.7v8H72V8M50.6 72h4v12H4V71.95h4l42.6.05" fill="#B6B6B6"/><path d="M88.05 8.1L88 46.7v8c0 1.1-.383 2.05-1.15 2.85-.8.767-1.75 1.15-2.85 1.15H72c-1.1 0-2.033-.383-2.8-1.15-.8-.8-1.2-1.733-1.2-2.8-6.033.433-10.017 3-11.95 7.7v.05c-.633 1.6-1.067 3.433-1.3 5.5 1.033.033 1.933.433 2.7 1.2.767.767 1.15 1.7 1.15 2.8v12c0 1.1-.383 2.05-1.15 2.85-.8.767-1.75 1.15-2.85 1.15H4c-1.1 0-2.033-.383-2.8-1.15C.4 86.05 0 85.1 0 84V71.95c0-1.1.4-2.033 1.2-2.8.767-.8 1.7-1.2 2.8-1.2V62.35C5.5 24.317 26.233 4.867 66.2 4H68c.033-1.067.433-1.967 1.2-2.7C69.967.5 70.9.1 72 .1h12.05c1.1 0 2.05.4 2.85 1.2.767.767 1.15 1.7 1.15 2.8v4M72 50.7v4h12v-8l.05-38.6v-4H72V8h-5.75C28.883 8.8 9.467 26.967 8 62.5v9.45H4V84h50.6V72h-4c-.067-4.333.5-8 1.7-11 2.467-6.4 7.75-9.833 15.85-10.3H72" fill="#777"/></g></svg>
